X:1
T:Let Us Now Go to Bethlehem
T:Let Us Now Go to Bethlehem
T:Old English Tune
T:Richard Robert Chope, 1894
T:Public Domain Courtesy of the Cyber Hymnal™
C:Old English Tune
Z:Public Domain
Z:Courtesy of the Cyber Hymnal™
%%score ( 1 2 ) ( 3 4 )
L:1/8
Q:1/4=115
M:4/4
K:Bb
V:1 treble 
V:2 treble 
V:3 bass 
V:4 bass 
V:1
 F2 | B2 F2 [DB]2 [Fc]2 | [Fd]2 [Fd]2 [Fc]2 [EA]2 | [DB]2 [EG]2 [DF]2 [EA]2 | [DB]6 [DF]2 | %5
w: 1.~Let|us now go to|Beth- le- hem, To|see the wond- rous|thing— Ma-|
w: 2.~Let|us now go to|Beth- le- hem, To|see the wond- rous|thing— Ma-|
w: 3.~Let|us then go to|Beth- le- hem— Faith’s|star shall guide the|way To|
 [FB]2 [DF]2 [FB]2 [Fc]2 | [Fd]2 [Fd]2 [Fc]2 [FA]2 | [FB]2 [EG]2 [DF]2 [EA]2 | [DB]6 [DB]2 | %9
w: ry and Jo- seph|and with them The|Babe, our in- fant|king! For|
w: ry and Jo- seph|and with them The|Babe, our in- fant|king— His|
w: Je- sus cra- dled|in His Church, This|bright ap- pear- ing|day! There,|
 [Fc]3 [Fd] [Fe]2 [Fd]2 | [Fc]6 [=EG]2 | [Fc]3 [FB] [FA]2 [=EG]2 | F6 [Ff]2 | %13
w: we shall find on|earth The|Heav’n of Heav’ns in|Him, The|
w: Fa- ther’s glo- ry|come To|lift our hearts a-|bove. First|
w: light’s true Light to|Thee We|sing with glad ac-|cord. To|
 [Fd]2 [GB]2 [Gc]2 [FA]2 | [FB]2 G2 [CF]2 [FB]2 | [EG]2 [B,E]2 D2 [EF]2 | [DB]6 |] %17
w: ho- ly, ho- ly,|ho- ly Son, Be-|neath the cher- u-|bim.|
w: loved by Him and|an- gel hosts We|car- ol back His|love.|
w: met it is to|cel- e- brate Thy|birth- day, Je- sus|Lord!|
V:2
 F2 | B2 F2 x4 | x8 | x8 | x8 | x8 | x8 | x8 | x8 | x8 | x8 | x8 | (F3 D C2) x2 | x8 | x2 (ED) x4 | %15
 x4 D2 x2 | x6 |] %17
V:3
 F,2 | B,2 [A,C]2 [G,B,]2 [F,A,]2 | [B,,B,]2 B,2 [F,A,]2 [F,C]2 | [G,B,]2 [E,B,]2 [F,D]2 [F,C]2 | %4
 [B,,B,]6 [B,,B,]2 | [B,,D]2 [B,,D]2 [D,B,]2 [C,A,]2 | [B,,B,]2 B,2 [F,A,]2 C2 | %7
 [D,B,]2 [E,B,]2 [F,B,]2 [F,D]2 | [B,,B,]6 G,2 | [F,A,]3 [F,B,] [F,C]2 [F,B,]2 | %10
 ([F,A,]3 [G,B,] [A,C]2) [B,C]2 | [A,C]3 [G,E] C2 [C,B,]2 | (A,3 B, A,2) [F,A,]2 | %13
 B,2 [G,D]2 [E,E]2 C2 | [D,B,]2 [E,B,]2 [F,A,]2 [D,B,]2 | [E,B,]2 [G,B,]2 [F,B,]2 [F,C]2 | %16
 [B,,B,]6 |] %17
V:4
 F,2 | B,2 x6 | x2 (D,E,) x4 | x8 | x8 | x8 | x2 (D,E,) x (F,E,) x | x8 | x6 G,2 | x8 | x8 | %11
 x4 C2 x2 | F,6 x2 | B,2 x2 (F,E,) x2 | x8 | x8 | x6 |] %17

